X:1
T:A minor Samuel Babcock, 1803
T:Based on Ecclesiastes Chapter 12
T:Remember now, remember thy Creator
T:Anthem Transcribed from The Middlesex Harmony, 1803.
%%score [ 1 2 3 4 ]
L:1/8
Q:1/4=100
M:2/4
K:C
V:1 treble nm="Treble" snm="Tr."
V:2 treble nm="Counter" snm="C."
V:3 treble-8 nm="Tenor" snm="T."
V:4 bass nm="Bass" snm="B."
V:1
 e | c2 c2 | c2 z c/d/ | e2 e2 | e2 z e/d/ | cc ce | dd ef | ed cB | A4 | z2 c2 | B3 c | d2 cd | %12
w: ||||||||||||
 e2 e2- | e2 ed | cB A2 | B3 e |: ed ce | d2 ef | ed cB |1 A2 Ae :|2 A2 A2 || z2 c2 | B3 d | %23
w: |||||||||||
 d2 cB | c2 c2 | z2 cB | AB cd | e2 cA | ^G2 G2 | z2 ef | ec ce | dc BB | A4 | z2 E2 | A2 AB | %35
w: ||||||||||When|men shall *|
 c2 cd | ed cB | c2 z B | Ac BG | E>F GG | A2 B2 | cA GF | E3 ^G | A2 B2 | c2 BB | c>d e2 | %46
w: rise at the|voice * of the|bird, And|all * the *|daugh- * ters of|mu- sic|shall be brought *|low. *||||
 e d/c/ B2 |[M:3/2] A8 A4 | ^G12 | A12 | A2 A2 A2 B2 (c3 d) | e12 |[M:2/4] z2 c2 | B>c d2 | e2 dc | %55
w: |||||||||
 B2 B2 | A4 | z4 |: c2 BA | ^G3 A | A2 AA | A>B cd | e4 | z2 cB | AB cd | e2 cA | ^G2 Ac | B2 B2 | %68
w: |||||||||||||
 z2 cd | ed cc | B2 AA | ^G3 G | A2 A2 :| z2 ef | e2 cB | c2 A2 | z2 e2 | c2 d2 | cA B c/A/ | %79
w: |||||||||||
 ^G2 G2 | z2 c2 | A2 Bd | cB A^G | A2 z e | c2 df | ed cB | A4- | A2 e2 | c2 d2 | cA B c/A/ | %90
w: |||||||||||
 ^G2 G2 | z2 c2 | e2 dc | BA ^GG | A4 |] %95
w: |||||
V:2
 E | E2 E2 | E2 z G | A2 A2 | A2 z E/F/ | GG GE | AA GF | E2 EE | E4 | z2 E2 | G3 G | G3 G | %12
w: Re-|mem- ber|now, re-|mem- ber|now, Re- *|mem- ber thy Cre-|a- tor in the|days of thy|youth;|Be-|fore the|e- vil|
 G2 E2- | E2 ED | E2 A2 | G3 G |: G2 GE | A2 GF | E2 EE |1 E2 EG :|2 E2 E2 || z2 E2 | G3 G | %23
w: days come,|* and the|years draw|nigh, In|which thou shalt|say, I have|no plea- sure|in them. In|in them.|Be-|fore the|
 G2 GG | G2 G2 | z2 ED | CF EF | E2 E2 | E2 E2 | z2 GA | G2 EE | F2 EE | E4 | z4 | z4 | z4 | z4 | %37
w: sun shall be|dar- kened.|And the|kee- pers of the|house shall|trem- ble,|And the|sound of the|grin- ding shall|cease.|||||
 z4 | z4 | z4 | z4 | z4 | z2 z E | E2 E2 | G2 GF | E2 EF | GF E2 |[M:3/2] E8 E4 | E12 | E12 | %50
w: |||||And|all the|daugh- ters of|mu- sic *|shall be brought|low, be-|cause|man|
 E2 FD C2 D2 (E2 A2) | G12 |[M:2/4] z2 G2 | G2 G2 | F2 E2 | E2 E2 | E4 | z4 |: E2 EE | E3 A | %60
w: go- eth * to his long *|home,|And|mour- ners|go a-|bout the|streets.||Then shall the|dust re-|
 A2 AA | A2 GG | G4 | z2 ED | CF ED | E2 EE | E2 E2 | E2 E2 | z2 ED | CF ED | G2 A/G/F | E3 E | %72
w: turn to the|earth as it|was,|And the|spi- rit shall re-|turn un- to|God that|gave it,|And the|spi- rit shall re-|turn un- * to|God that|
 E2 E2 :| z2 GA | G2 EE | E2 E2 | z2 E2 | G2 A2 | GE FF | E2 E2 | z2 E2 | E2 GF | E2 EE | E2 z G | %84
w: gave it.|Let us|hear the con-|clu- sion:|Fear|God, and|keep * his com-|mand- ments:|For|this is the|du- ty of|man, For|
 G2 GF | E2 EE | E4- | E2 E2 | G2 A2 | GE FF | E2 E2 | z2 A2 | G2 GF | E2 EE | E4 |] %95
w: this is the|du- ty of|man.~|_ Fear|God, and|keep * his com-|mand- ments:|For|this is the|du- ty of|man.|
V:3
 E | A2 A2 | A2 z A/B/ | c2 c2 | c2 z c/d/ | ee ec | Bd cA | ^G2 GG | A4 | z2 c2 | e3 e | d2 ed | %12
 c2 B2- | B2 cd | ed cd | e3 B |: cd ec | A>B cA | ^G2 GG |1 A2 AB :|2 A2 A2 || z2 c2 | e3 f | %23
 g2 ed | e2 e2 | z2 cd | ed cB | c2 Ac | B2 B2 | z2 cd | e2 ec | BA ^GG | A4 | z4 | z4 | z4 | z4 | %37
 z4 | z4 | z4 | z4 | z4 | z2 z E | Ac BG | E>F GG | A2 B2 | cA ^G2 |[M:3/2] A8 c4 | B12 | c12 | %50
 c2 d2 e2 d2 c4 | B12 |[M:2/4] z2 e2 | d>c B2 | c2 BA | ^G2 G2 | A4 | z4 |: c2 ee | e3 c | d2 dd | %61
 d2 cB | c4 | z2 cd | ed cB | c2 Ac | B2 cA | ^G2 G2 | z2 AB | cd ef | e2 dc | B3 B | A2 A2 :| %73
 z2 BB | c2 A^G | A2 A2 | z2 c2 | e2 f2 | e2 dc | B2 B2 | z2 e2 | c2 df | ed cB | A2 z c | e2 dc | %85
 BA ^GG | A4- | A2 c2 | e2 f2 | e2 dc | B2 B2 | z2 e2 | c2 df | ed cB | A4 |] %95
V:4
 E, | A,,2 A,,2 | A,,2 z E, | A,2 A,2 | A,2 z G, | C,C, C,C, | D,D, C,D, | E,2 E,E, | A,,4 | %9
 z2 A,2 | E,3 E, | G,3 G, | C,>D, E,2- | E,2 A,B, | CB, A,2 | E,3 E, |: C,2 C,C, | D,2 C,D, | %18
 E,2 E,E, |1 A,,2 A,,E, :|2 A,,2 A,,2 || z2 A,2 | E,3 D, | G,2 G,,G,, | C,2 C,2 | z2 A,B, | %26
 CB, A,^G, | A,2 A,,2 | E,2 E,2 | z2 E,D, | C,2 C,C, | D,2 E,E, | A,,4 | z4 | z4 | z4 | z4 | z4 | %38
 z4 | z4 | z4 | z4 | z2 z E, | A,2 E,2 | C,>D, E,E, | A,2 E,D, | C,D, E,2 |[M:3/2] A,,8 A,4 | %48
 E,12 | A,12 | E,2 D,2 C,2 B,,2 A,,4 | E,12 |[M:2/4] z2 E,2 | G,2 G,2 | C,2 D,2 | E,2 E,2 | A,,4 | %57
 z4 |: A,2 E,E, | E,3 F, | D,2 D,D, | D,2 G,G, | C,4 | z2 A,B, | CB, A,^G, | A,2 A,,A,, | E,2 A,2 | %67
 E,2 E,2 | z2 C,B,, | A,,B,, C,D, | E,2 F,D, | E,2 E,2 | A,,2 A,,2 :| z2 E,D, | C,>D, E,E, | %75
 A,,2 A,,2 | z2 A,2 | E,2 D,2 | C,2 B,,A,, | E,2 E,2 | z2 A,2 | C2 G,A, | E,2 E,E, | A,,2 z E, | %84
 C2 G,A, | E,2 E,E, | A,,4- | A,,2 A,2 | E,2 D,2 | C,2 B,,A,, | E,2 E,2 | z2 A,2 | C2 G,A, | %93
"^Edited by B. C. Johnston, 2016\nMeasure 45, Tenor: G# changed to G, as in Counter." E,2 E,E, | %94
 A,,4 |] %95

